!!!COM: Nantermi, Orazio
!!!CDT:
!!!PTL: Il primo libro de madrigali a cinque voci
!!!PPP: Venice
!!!PPR: Heirs of G. Scotto
!!!PDT: 1585
!!!PUB-format: anthology
!!!RISM: S 1135
!!!rime: 305
!!!OTL: Ne i vostri dolci baci
!!!AGN: Madrigal
!!!SCT: Trm0305d
!!!SCA: Trm0305d
!!!original-voices: 5
!!!extant-voices: 2
!!!complete: N
!!!final: D
**kern	**text	**kern	**text
*part2	*part2	*part1	*part1
*staff2	*staff2	*staff1	*staff1
*I"Tenore	*	*I"Alto	*
*I'T	*	*I'A	*
*oclefC3	*	*oclefC2	*
*clefGv2	*	*clefG2	*
*k[b-]	*	*k[b-]	*
*F:	*	*F:	*
*omet(C|)	*	*omet(C|)	*
*M4/2	*	*M4/2	*
=1	=1	=1	=1
0r	.	1g	Ne i
.	.	4.g	vo-
.	.	8cc	-stri
.	.	4b-y	dol-
.	.	4g	-ci
=2	=2	=2	=2
2r	.	2a	ba-
4r	.	4d	-ci,
4d	Ne i	4a	<Ne i
4.d	vo-	4.a	vo-
8g	-stri	8g	-stri
4f	dol-	4a	dol-
4c	-ci	4g	-ci
=3	=3	=3	=3
2d	ba-	2f#X	ba-
2G	-ci	4g	-ci>
.	.	4g	De
4r	.	4g	l'a
4B-y	De	8fL	.
.	.	8eJ	.
4B-y	l'a-	2d	.
8AL	.	.	.
8GJ	.	.	.
=4	=4	=4	=4
2A	-pi,	2f#X	pi_è_il
2r	.	4f#i	dol-
.	.	4g	-ce
1r	.	1d	me-
=5	=5	=5	=5
2r	.	2.d	-le,
4r	.	.	.
4d	De	4e	il
2d	l'a-	4.f#X	dol-
.	.	8g	.
2A	-pi_è_il	4a	.
.	.	4a	-ce
=6	=6	=6	=6
4A	dol-	1d	me-
4B-y	-ce	.	.
2A	me-	.	.
4G	-le,	4d	-le,
4B-y	Ne i	4g	Ne i
4.B-y	vo-	4.g	vo-
8c	-stri	8g	-stri
=7	=7	=7	=7
4d	dol-	4b-y	dol-
4d	-ci	4b-y	-ci
2c#X	ba-	2a	ba-
4d	-ci,	4a	-ci,
4d	<Ne i	4a	<Ne i
4.c	vo-	4.cc	vo-
8G	-stri	8b-y	-stri
=8	=8	=8	=8
4A	dol-	4a	dol-
4B-y	-ci	4g	-ci
2A	ba-	4.a	ba-
.	.	8g	.
1d	-ci>	4f#X	-ci>
.	.	4a	De
.	.	4f	l'a-
.	.	8eL	.
.	.	8dJ	.
=9	=9	=9	=9
2r	.	1e	-pi,
2A	De	.	.
[1A	l'a-	1a	De
=10	=10	=10	=10
1A]	.	2a	l'a-
.	.	2d	-pi_è_il
2G	-pi	4g	dol-
.	.	4f	.
2r	.	4e	.
.	.	4d	-ce
=11	=11	=11	=11
4r	.	1a	me-
4f	è_il	.	.
8e	dol-	.	.
8d	-ce	.	.
4e	me-	.	.
2d	-le,	2a	-le,
4d	E	4g	E
4f	v'è'l	4a	v'è'l
=12	=12	=12	=12
4e	mor-	4g	mor-
8e	-so	8e	-so
8d	de	4a	de
4f	l'a-	.	.
.	.	16gL	.
.	.	16fJ	.
8eL	.	4g	.
8dJ	.	.	.
2f	.	2a	l'a-
2e	-pi,	2a	-pi,
=13	=13	=13	=13
4A	E	4e	<E
4d	v'è'l	4f	v'è'l
4c	mor-	4g	mor-
8c	-so	8g	-so
8F	de	8a	de
2G	l'a-	2g	l'a-
2A	-pi	2e	-pi>
=14	=14	=14	=14
1.d	an-	2f	an-
.	.	1g	-co
2B-y	-co	2f	cru-
=15	=15	=15	=15
1c	cru-	4e	-de-
.	.	4c	.
.	.	2.f	.
1c	-de-	.	.
.	.	8eL	.
.	.	8dJ	.
.	.	2e	.
=16	=16	=16	=16
1c	-le.	4f	-le,
.	.	2a	E
.	.	4a	v'è'l
1r	.	2g	mor-
.	.	4g	-so
.	.	4g	de
=17	=17	=17	=17
0r	.	2g	l'a-
.	.	2.b-y	-pi_an-
.	.	4b-y	-co
.	.	2a	cru-
=18	=18	=18	=18
0r	.	1a	-de-
.	.	1a	-le.
=19	=19	=19	=19
2r	.	2r	.
2.A	Dun-	2.a	Dun-
4A	-qu'a-	4a	-qu'a-
2d	-dol-	2a	-dol-
=20	=20	=20	=20
1.c	-ci-	1.cc	-ci-
2d	-t'e	2a	-t'e
=21	=21	=21	=21
2A	pun-	2a	pun-
4A	-to,	4a	-to,
2e	<Dun-	2a	<Dun-
4e	-qu'a-	4a	-qu'a-
2d	-dol-	2a	-dol-
=22	=22	=22	=22
1.d	-ci-	1b-y	-ci-
.	.	2b-y	-t'e
2d	-t'e	[2a	pun-
=23	=23	=23	=23
2f	pun-	2a]	.
4e	-to>	4a	-to>
4f	Da	4a	Da
4d	voi	4g	voi
4.f	par-	4.a	par-
8f	-t'in	8a	-t'in
4d	un	4g	un
=24	=24	=24	=24
4c#X	pun-	4e	pun-
4d	-to,	4f	-to,
4r	.	4r	.
4d	<Da	4f	<Da
4G	voi	4g	voi
4.G	par-	4.b-y	par-
8G	-t'in	8b-y	-t'in
4d	un	4a	un
=25	=25	=25	=25
4A	pun-	4a	pun-
4A	-to,>	4a	-to,>
4r	.	4r	.
4e	Da	4a	Da
2d	voi	2a	voi
[2d	par-	[2g	par-
=26	=26	=26	=26
4d]	.	4g]	.
4d	-t'in	4g	-t'in
2d	un	2a	un
1e	pun-	2.a	pun-
.	.	4g	.
=27	=27	=27	=27
0dl	-to.	0f#Xl	-to.
==	==	==	==
*-	*-	*-	*-
!!!system-decoration: [*]
!!!RDF**kern: i = editorial accidental
!!!RDF**kern: l = terminal long
!!!ENC: Emiliano Ricciardi
!!!END: 2019/01/30
!!!EED: Schleuse, Paul
!!!EEV: 2019/01/30
!!!YEC: Copyright 2018 Emiliano Ricciardi, All Rights Reserved
!!!ONB: Translated from MusicXML on 2019/01/30 and edited by Craig Stuart Sapp
!!@@BEGIN:	VERSEDATA
!!@SOLERTI:	305
!!@CATALOGNUM:	Trm0305
!!@LAST_MODIFIED: 2020/07/12
!!@TITLE:		Ne i vostri dolci baci
!!@GENRE:		madrigale
!!@MANUSRC:	Amz, Brn, C, Ts<sub>1</sub>, V<sub>8</sub>, V<sub>13/TS1</sub>
!!@PRINTSRC:	8, 9, 11, 12, 13, 15, 20, 24, 29, 33, 67, 145, 141, 166, 169
!!@@BEGIN:	VERSES
!!@ABOUTIT:	Sovra i baci di una bella giovane
!!@ABOUTEN:	On the kisses of a beautiful young lady
!!@EDITOR:	Solerti, Angelo
!!@EDITION_TITLE: Le Rime di Torquato Tasso
!!@EDITION_LOC:	Bologna
!!@EDITION_PUB:	Romagnoli-Dall’Acqua
!!@EDITION_DATE:  1898-1902
!!@EDITION_VOL:	2
!!@EDITION_PAGE:  366
!!@TRANSLATOR:	Emiliano Ricciardi and Amyrose McCue Gill
!!@VERSE:
!!	Ne i vostri dolci baci
!!	De l'Api è il dolce mele,
!!	E v'è l'ago de l'api aspro crudele.
!!	Dunque addolcito e punto
!!	Da voi parto in un punto.
!!@TVERSE:
!!	In your sweet kisses
!!	Is the sweet honey of the bees
!!	And there [too] is the stinger of the bees, biting and cruel.
!!	Thus sweetened and stung
!!	From you I depart at once.
!!@@END:		VERSES
!!@OTHER_CRIT_ED:   Torquato Tasso, <i>Rime d’amore (secondo il codice
!!		Chigiano L VIII 302)</i>, eds. Franco Gavazzeni and
!!		Vercingetorige Martignone, vol. 4 of <i>Edizione
!!		Nazionale delle opere di Torquato Tasso</i>
!!		(Alessandria: Edizioni Dell’Orso, 2004), 172.
!!@ATTRIBUTION_ABOUT:	Secure
!!		<br>
!!		Among other authoritative sources (see Literary
!!		Sources), this poem appears in the autograph Chigiano
!!		L.VIII.302 (Biblioteca Vaticana, Rome), compiled
!!		around 1584&ndash;85.
!!@DATING:	In or before 1581
!!	<br>
!!	The earliest datable appearance of this poem is in Manuzio's 1581 print of the <i>Rime</i> (see Literary Sources).
!!@DEDICATEE:
!!@COMMENTARY:
!!@@END:		VERSEDATA
!!@@BEGIN:	SETTING
!!@CATALOGNUM:	Trm0305d
!!@RIMETITLE:	Ne i vostri dolci baci
!!@SOLERTI:	305
!!@COMPOSER:	Nantermi, Orazio
!!@PRINCEPSFORMAT: anthology
!!@PRINCEPSAUTHOR: Scaletta, Horatio
!!@PRINCEPSTITLE:	Il primo libro de madrigali a cinque voci
!!@PRINCEPSLOC:	Venigia
!!@NORMLOC:	Venice
!!@NORMPUB:	Heirs of G. Scotto
!!@NORMPUBSHORT:	Scotto
!!@PRINCEPSPUB:	Heredi di Scotto
!!@PRINCEPSYEAR:	1585
!!@PRINCEPSRISM:	S 1135
!!@REPRINTS:	
!!@OVOICES:	5
!!@EXTANTVOICES:	2
!!@PARTBOOKS:	
!!@EXTPARTBOOKS:	
!!@OCLEFS:	C2,C3
!!@OMENSURATION:	Cut-C
!!@OKEYSIG:	b-
!!@FINAL:	D
!!@TIMPEDITOR:	Schleuse, Paul
!!@NOTE:		
!!@@END:		SETTING
